assets/build/img/interest.svg

<svg width="23" height="23" viewBox="0 0 23 23" fill="none" xmlns="http://www.w3.org/2000/svg">
<g clip-path="url(#clip0)">
<path d="M8.44369 10.5078C8.97467 10.5078 9.40511 10.0774 9.40511 9.54638C9.40511 9.0154 8.97467 8.58496 8.44369 8.58496C7.91271 8.58496 7.48227 9.0154 7.48227 9.54638C7.48227 10.0774 7.91271 10.5078 8.44369 10.5078Z" fill="#00642F"/>
<path d="M14.5515 14.4101C15.0825 14.4101 15.513 13.9797 15.513 13.4487C15.513 12.9177 15.0825 12.4873 14.5515 12.4873C14.0206 12.4873 13.5901 12.9177 13.5901 13.4487C13.5901 13.9797 14.0206 14.4101 14.5515 14.4101Z" fill="#00642F"/>
<path d="M22.4786 12.7701L22.1298 12.2941C21.7528 11.7757 21.7434 11.0735 22.1157 10.5456L22.455 10.0649C22.9734 9.32972 22.7331 8.30703 21.9366 7.87816L21.4182 7.6001C20.8526 7.29848 20.5416 6.66696 20.65 6.03072L20.749 5.45104C20.8998 4.56503 20.2353 3.74499 19.3351 3.70729L18.746 3.68372C18.105 3.65545 17.5489 3.22186 17.3698 2.60448L17.2049 2.03894C16.9551 1.17177 16.0031 0.724051 15.1736 1.08223L14.6317 1.31316C14.0426 1.56765 13.3545 1.41684 12.9256 0.936129L12.5344 0.497834C11.9359 -0.171392 10.8849 -0.166679 10.2911 0.516685L9.90467 0.959693C9.48052 1.44512 8.79715 1.60535 8.20333 1.36029L7.65664 1.13407C6.82247 0.790031 5.8799 1.2566 5.63954 2.12377L5.48402 2.69402C5.31435 3.31612 4.76766 3.75913 4.12671 3.79212L3.53761 3.82511C2.63745 3.87695 1.98708 4.70641 2.15203 5.59243L2.26042 6.17211C2.37824 6.80363 2.07662 7.43987 1.51579 7.75092L1.00209 8.0384C0.215043 8.4767 -0.011174 9.5041 0.521379 10.2299L0.87013 10.7059C1.24716 11.2243 1.25658 11.9265 0.884269 12.4543L0.544943 12.9351C0.0265289 13.6703 0.266885 14.6929 1.06336 15.1218L1.58177 15.3999C2.14731 15.7015 2.45836 16.333 2.34997 16.9693L2.251 17.5489C2.10019 18.435 2.7647 19.255 3.66485 19.2927L4.25396 19.3163C4.89491 19.3445 5.45103 19.7781 5.63011 20.3955L5.79506 20.961C6.04485 21.8282 6.99684 22.2759 7.82631 21.9178L8.36828 21.6868C8.95739 21.4323 9.64547 21.5831 10.0743 22.0639L10.4655 22.5021C11.0688 23.1714 12.1197 23.1667 12.7088 22.4833L13.0953 22.0403C13.5194 21.5549 14.2028 21.3946 14.7966 21.6397L15.3433 21.8659C16.1775 22.21 17.1201 21.7434 17.3604 20.8762L17.5159 20.306C17.6856 19.6839 18.2323 19.2409 18.8732 19.2079L19.4623 19.1749C20.3625 19.123 21.0129 18.2936 20.8479 17.4076L20.7395 16.8279C20.6217 16.1963 20.9233 15.5601 21.4842 15.2491L21.9979 14.9616C22.7849 14.528 23.0111 13.5006 22.4786 12.7701ZM6.12025 9.54651C6.12025 8.26462 7.15708 7.22779 8.43898 7.22779C9.72087 7.22779 10.7577 8.26462 10.7577 9.54651C10.7577 10.8284 9.72087 11.8652 8.43898 11.8652C7.15708 11.8652 6.12025 10.8237 6.12025 9.54651ZM8.8867 15.5271C8.68876 15.7675 8.33058 15.8005 8.09022 15.6025C7.84987 15.4046 7.81688 15.0464 8.01482 14.8061L14.0991 7.47757C14.2971 7.23721 14.6552 7.20423 14.8956 7.40216C15.1359 7.6001 15.1689 7.95828 14.971 8.19864L8.8867 15.5271ZM14.5516 15.7675C13.2697 15.7675 12.2328 14.7307 12.2328 13.4488C12.2328 12.1669 13.2697 11.13 14.5516 11.13C15.8334 11.13 16.8703 12.1669 16.8703 13.4488C16.8703 14.7307 15.8334 15.7675 14.5516 15.7675Z" fill="#00642F"/>
</g>
<defs>
<clipPath id="clip0">
<rect width="23" height="23" fill="white"/>
</clipPath>
</defs>
</svg>

<svg width="23" height="23" viewBox="0 0 23 23" fill="none" xmlns="http://www.w3.org/2000/svg"><g clip-path="url(#clip0)" fill="#00642F"><path d="M8.444 10.508a.961.961 0 100-1.923.961.961 0 000 1.923zm6.108 3.902a.961.961 0 100-1.923.961.961 0 000 1.923z"/><path d="M22.479 12.77l-.35-.476a1.5 1.5 0 01-.013-1.748l.339-.481a1.5 1.5 0 00-.518-2.187l-.519-.278a1.494 1.494 0 01-.768-1.57l.099-.579a1.497 1.497 0 00-1.414-1.744l-.589-.023a1.502 1.502 0 01-1.376-1.08l-.165-.565a1.494 1.494 0 00-2.031-.957l-.542.231a1.494 1.494 0 01-1.706-.377l-.392-.438a1.494 1.494 0 00-2.243.019L9.905.96a1.499 1.499 0 01-1.702.4l-.546-.226a1.5 1.5 0 00-2.017.99l-.156.57a1.488 1.488 0 01-1.357 1.098l-.59.033c-.9.052-1.55.881-1.385 1.767l.108.58a1.494 1.494 0 01-.744 1.579l-.514.287a1.496 1.496 0 00-.48 2.192l.348.476a1.5 1.5 0 01.014 1.748l-.34.481a1.5 1.5 0 00.52 2.187l.518.278c.565.301.876.933.768 1.57l-.099.579a1.497 1.497 0 001.414 1.744l.589.023a1.502 1.502 0 011.376 1.08l.165.565a1.494 1.494 0 002.031.957l.542-.231a1.493 1.493 0 011.706.377l.392.438c.603.67 1.654.665 2.243-.019l.386-.443a1.498 1.498 0 011.702-.4l.546.226a1.5 1.5 0 002.017-.99l.156-.57a1.488 1.488 0 011.357-1.098l.59-.033c.9-.052 1.55-.881 1.385-1.767l-.108-.58a1.494 1.494 0 01.744-1.579l.514-.287a1.494 1.494 0 00.48-2.192zM6.12 9.547a2.317 2.317 0 012.319-2.32 2.317 2.317 0 012.319 2.32 2.317 2.317 0 01-2.319 2.318A2.32 2.32 0 016.12 9.547zm2.767 5.98a.567.567 0 01-.797.075.567.567 0 01-.075-.796l6.084-7.328a.567.567 0 01.797-.076c.24.198.273.556.075.797l-6.084 7.328zm5.665.24a2.317 2.317 0 01-2.32-2.318 2.317 2.317 0 012.32-2.319 2.317 2.317 0 012.318 2.319 2.317 2.317 0 01-2.318 2.319z"/></g><defs><clipPath id="clip0"><path fill="#fff" d="M0 0h23v23H0z"/></clipPath></defs></svg>
